X: 160302
T: Patrick Keane's (reel)
N: 191
C: BB
R: reel
Q: 1/8=380
M: 4/4
L: 1/8
K: G
A|"G"BGDE G3 A|"Bm7"BdAB "G"GABd|"C"edef "Am7"gage|"G"dedB "D"A2 ^GA|
"G"BGDE G3 A|"Bm7"BdAB "G"GFED|"Em"B,EEF GABe|"D"dBAF "G"G3 :|
d|"Em"edBd "C"efge|"Em"edBd "D7"cBAF|"G"G2 Bd gdBd|"C"edeg "D"a2 ^ga|
"Em"bg (3gfg "C"efgf|"Em"edBA "G"GABc|"G"Bd (3d^cd "Em"gbge|"D"dBAF "G"G3 :|
